src/public/img/landing/new/external-websites/coinmarketcap.svg

<svg width="140" height="24" viewBox="0 0 140 24" fill="none" xmlns="http://www.w3.org/2000/svg">
<path fill-rule="evenodd" clip-rule="evenodd" d="M20.5747 14.3415C20.1559 14.606 19.6627 14.6388 19.2878 14.4275C18.8115 14.1588 18.5497 13.5296 18.5497 12.6544V10.0361C18.5497 8.77171 18.0495 7.872 17.213 7.62907C15.7954 7.21639 14.7293 8.94966 14.3286 9.60058L11.8285 13.6513V8.70029C11.8004 7.56117 11.4302 6.87981 10.7273 6.67434C10.2622 6.53854 9.56628 6.59298 8.89029 7.62673L3.28912 16.6144C2.53926 15.1919 2.14835 13.6079 2.15038 12C2.15038 6.58595 6.49213 2.18166 11.8285 2.18166C17.1649 2.18166 21.5061 6.58595 21.5061 12C21.5061 12.0094 21.5085 12.0176 21.509 12.0263C21.509 12.0357 21.5073 12.0439 21.5079 12.0533C21.5582 13.1017 21.2185 13.9358 20.5747 14.342V14.3415ZM23.6565 12.0006V12V11.9731L23.6559 11.9461C23.626 5.35259 18.3324 0 11.8279 0C5.30653 0 0 5.38302 0 12C0 18.6164 5.30653 24 11.8285 24C14.8213 24 17.6775 22.8632 19.87 20.7998C20.3059 20.39 20.3316 19.6999 19.9274 19.2585C19.8323 19.1537 19.7172 19.0689 19.5889 19.0091C19.4605 18.9493 19.3215 18.9157 19.18 18.9102C19.0385 18.9048 18.8973 18.9276 18.7647 18.9773C18.6322 19.0271 18.5109 19.1028 18.4079 19.2C16.6308 20.8817 14.2761 21.8188 11.8285 21.8183C8.97113 21.8183 6.40017 20.5545 4.62703 18.5502L9.67816 10.4453V14.1817C9.67816 15.9764 10.3746 16.5565 10.9587 16.7262C11.5433 16.896 12.4366 16.7801 13.3744 15.2581L16.1527 10.7573C16.2418 10.6121 16.3238 10.4868 16.3987 10.3785V12.6544C16.3987 14.3321 17.0712 15.6738 18.2433 16.3346C19.3001 16.9305 20.6286 16.8767 21.7111 16.1941C23.0233 15.3659 23.7303 13.8398 23.6565 12.0006ZM40.1244 7.90068C40.4085 8.07337 40.6545 8.45737 40.6545 8.80332C40.6545 9.36 40.1812 9.82068 39.651 9.82068C39.5187 9.82068 39.3863 9.78263 39.2726 9.744C38.6476 9.28332 37.8527 8.976 37.0197 8.976C35.0515 8.976 33.6885 10.5887 33.6885 12.5854C33.6885 14.5826 35.0515 16.176 37.0197 16.176C38.0038 16.176 38.8749 15.7727 39.5374 15.1586C39.7086 15.0357 39.9136 14.9686 40.1244 14.9666C40.6545 14.9666 41.071 15.3887 41.071 15.9266C41.071 16.272 40.8624 16.5793 40.5977 16.752C39.651 17.5586 38.3641 18.096 37.0391 18.096C34.0106 18.096 31.5492 15.6 31.5492 12.528C31.5492 9.456 34.01 6.96 37.0391 6.96C38.1749 6.96 39.2533 7.30537 40.1244 7.90068ZM45.6623 10.224C47.7254 10.224 49.4669 11.9713 49.4669 14.1214C49.4669 16.272 47.7254 18.096 45.6623 18.096C43.5043 18.096 41.7059 16.272 41.7059 14.1214C41.7059 11.9713 43.5043 10.224 45.6623 10.224ZM45.6429 16.176C46.5521 16.176 47.3276 15.312 47.3276 14.1407C47.3276 12.97 46.5521 12.24 45.6429 12.24C44.6588 12.24 43.8446 12.9506 43.8446 14.1407C43.8446 15.312 44.6588 16.176 45.6429 16.176ZM50.7644 16.9054V11.4146C50.7644 10.8193 51.2377 10.32 51.8246 10.32C52.4115 10.32 52.9036 10.8193 52.9036 11.4146V16.9054C52.9036 17.5007 52.4115 18 51.8246 18C51.2377 18 50.7644 17.5007 50.7644 16.9054ZM50.5945 8.24663C50.5945 7.536 51.1428 6.96 51.8246 6.96C52.5246 6.96 53.0928 7.536 53.0928 8.24663C53.0928 8.93737 52.5246 9.49463 51.8246 9.49463C51.1428 9.49463 50.5945 8.93737 50.5945 8.24663ZM57.0028 13.9294V16.9054C57.0028 17.5007 56.5108 18 55.9233 18C55.3369 18 54.863 17.5007 54.863 16.9054V11.1647C54.863 10.704 55.242 10.32 55.6966 10.32C56.1505 10.32 56.5108 10.704 56.5108 11.1647C57.3813 10.3586 58.1381 10.224 58.8574 10.224C60.9967 10.224 61.9433 11.8367 61.9433 13.6607V16.9054C61.9433 17.5007 61.4512 18 60.8643 18C60.2773 18 59.804 17.5007 59.804 16.9054V13.9294C59.804 12.9887 59.6904 12.2014 58.3466 12.2014C57.4 12.2014 57.0023 12.9887 57.0023 13.9294H57.0028ZM68.9005 15.0626C68.6545 15.0626 68.4846 14.9473 68.3516 14.7934L65.8527 12.0866V16.9054C65.8527 17.5007 65.3607 18 64.7737 18C64.1868 18 63.7135 17.5007 63.7135 16.9054V7.3639C63.7441 7.28352 63.7988 7.21453 63.87 7.16634C63.9413 7.11815 64.0257 7.09311 64.1118 7.09463C64.3004 7.09463 64.4515 7.24859 64.5658 7.3639L68.5408 11.8373C68.6545 11.9719 68.8056 12.0486 68.8818 12.0486C68.9573 12.0486 69.1085 11.9719 69.2221 11.8379L73.1977 7.3639C73.3114 7.24859 73.4625 7.09463 73.6517 7.09463C73.8409 7.09463 73.9926 7.20995 74.0495 7.3639V16.9054C74.0495 17.5007 73.5761 18 72.9892 18C72.4023 18 71.9102 17.5007 71.9102 16.9054V12.0866L69.4119 14.7934C69.2789 14.9473 69.1085 15.0626 68.9005 15.0626ZM79.1896 16.176C80.155 16.176 80.9686 15.312 80.9686 14.1407C80.9686 12.97 80.1362 12.2014 79.1896 12.2014C78.243 12.2014 77.4856 12.9887 77.4856 14.1407C77.4856 15.2734 78.243 16.176 79.1896 16.176ZM81.4613 17.1553L81.4226 16.9054C81.0067 17.7307 79.6811 18.096 78.8294 18.096C76.8225 18.096 75.3464 16.272 75.3464 14.1214C75.3464 11.9713 76.8606 10.224 78.943 10.224C79.3027 10.224 80.4953 10.32 81.4226 11.4146L81.4607 11.1647C81.4607 10.704 81.8203 10.32 82.2749 10.32C82.7289 10.32 83.1073 10.704 83.1073 11.1647V17.1553C83.1073 17.616 82.7289 18 82.2743 18C81.8203 18 81.4601 17.616 81.4601 17.1553H81.4613ZM89.0429 12.2014H88.8162C87.4719 12.2786 87.2071 13.0466 87.2071 13.9294V16.9054C87.2071 17.5007 86.7151 18 86.1281 18C85.5412 18 85.0679 17.5007 85.0679 16.9054V11.1647C85.0679 10.704 85.4463 10.32 85.9008 10.32C86.3554 10.32 86.7151 10.704 86.7151 11.1647C87.51 10.416 88.1537 10.2626 88.8162 10.224H89.0242C89.5356 10.224 90.0083 10.6654 90.0083 11.2226C90.0083 11.7407 89.5543 12.2014 89.0429 12.2014ZM97.2877 16.4066C97.3826 16.56 97.4394 16.7327 97.4394 16.9247C97.4394 17.4814 96.928 18 96.3792 18C96.0008 18 95.6786 17.712 95.4326 17.4047L92.9723 14.544V16.9054C92.9723 17.5007 92.4797 18 91.8927 18C91.3058 18 90.8325 17.5007 90.8325 16.9054V8.18927C90.8325 7.59337 91.3058 7.09463 91.8927 7.09463C92.4797 7.09463 92.9717 7.59337 92.9717 8.18927V13.6226L95.4326 10.896C95.6786 10.608 95.9814 10.32 96.3604 10.32C96.8905 10.32 97.3826 10.8193 97.3826 11.376C97.3826 11.5487 97.3445 11.7214 97.2496 11.8753L95.3002 14.006L97.2877 16.406V16.4066ZM101.482 12.24C100.895 12.24 99.9483 12.5473 99.9483 13.4494H103.034C103.034 12.528 102.049 12.24 101.481 12.24H101.482ZM104.283 14.8127H99.9483C99.9483 16.0993 101.178 16.2913 101.727 16.2913C102.126 16.2913 102.693 16.2146 103.128 16.022C103.261 15.9266 103.488 15.8494 103.677 15.8494C104.151 15.8494 104.548 16.2533 104.548 16.7333C104.548 17.0593 104.34 17.3473 104.075 17.5007C103.413 17.9807 102.56 18.096 101.747 18.096C99.5886 18.096 97.7903 16.9253 97.7903 14.2174C97.7903 12.0866 98.888 10.224 101.444 10.224C103.507 10.224 105.078 11.568 105.116 13.968C105.116 14.4287 104.738 14.8127 104.283 14.8127ZM110.237 18.096H109.65C108.022 18.096 107.076 17.3854 107.076 14.832V12.2014H106.527C106.016 12.2014 105.562 11.7407 105.562 11.2226C105.562 10.6654 106.016 10.224 106.527 10.224H107.076V8.18868C107.076 7.59337 107.549 7.09405 108.136 7.09405C108.723 7.09405 109.215 7.59337 109.215 8.18868V10.224H110.104C110.616 10.224 111.07 10.6654 111.07 11.2226C111.07 11.7407 110.616 12.2014 110.104 12.2014H109.215V14.4094C109.215 15.8687 109.291 16.176 109.935 16.176H110.237C110.748 16.176 111.183 16.5986 111.183 17.136C111.183 17.6546 110.748 18.096 110.237 18.096ZM120.602 7.90068C120.886 8.07337 121.132 8.45737 121.132 8.80332C121.132 9.36 120.659 9.82068 120.129 9.82068C119.996 9.82068 119.863 9.78263 119.75 9.744C119.125 9.28332 118.33 8.976 117.497 8.976C115.529 8.976 114.166 10.5887 114.166 12.5854C114.166 14.5826 115.529 16.176 117.497 16.176C118.482 16.176 119.353 15.7727 120.015 15.1586C120.186 15.0357 120.391 14.9686 120.602 14.9666C121.132 14.9666 121.548 15.3887 121.548 15.9266C121.548 16.272 121.34 16.5793 121.075 16.752C120.129 17.5586 118.841 18.096 117.516 18.096C114.488 18.096 112.027 15.6 112.027 12.528C112.027 9.456 114.487 6.96 117.516 6.96C118.653 6.96 119.731 7.30537 120.602 7.90068ZM126.026 16.176C126.992 16.176 127.805 15.312 127.805 14.1407C127.805 12.97 126.972 12.2014 126.026 12.2014C125.08 12.2014 124.322 12.9887 124.322 14.1407C124.322 15.2734 125.08 16.176 126.026 16.176H126.026ZM128.297 17.1553L128.26 16.9054C127.843 17.7307 126.518 18.096 125.666 18.096C123.66 18.096 122.183 16.272 122.183 14.1214C122.183 11.9713 123.698 10.224 125.78 10.224C126.139 10.224 127.332 10.32 128.26 11.4146L128.297 11.1647C128.297 10.704 128.657 10.32 129.112 10.32C129.566 10.32 129.945 10.704 129.945 11.1647V17.1553C129.945 17.616 129.566 18 129.112 18C128.657 18 128.297 17.616 128.297 17.1553ZM135.823 16.176C136.769 16.176 137.526 15.2734 137.526 14.1407C137.526 12.9887 136.769 12.2014 135.823 12.2014C134.876 12.2014 134.043 12.9694 134.043 14.1407C134.043 15.312 134.857 16.176 135.823 16.176ZM134.043 17.4626V20.1887C134.043 20.784 133.551 21.2833 132.964 21.2833C132.378 21.2833 131.904 20.784 131.904 20.1887V11.1647C131.904 10.704 132.283 10.32 132.738 10.32C133.192 10.32 133.552 10.704 133.552 11.2414C134.346 10.416 135.331 10.224 136.069 10.224C138.151 10.224 139.666 11.9713 139.666 14.1214C139.666 16.272 138.189 18.096 136.183 18.096C135.558 18.096 134.63 17.904 134.043 17.4626Z" fill="black"/>
</svg>

<svg xmlns="http://www.w3.org/2000/svg" width="140" height="24" fill="none">
  <path fill="#000" fill-rule="evenodd" d="M20.575 14.341c-.42.265-.912.298-1.287.087-.477-.27-.738-.898-.738-1.774v-2.618c0-1.264-.5-2.164-1.337-2.407-1.418-.413-2.484 1.32-2.884 1.972l-2.5 4.05v-4.95c-.029-1.14-.399-1.821-1.102-2.027-.465-.135-1.16-.081-1.837.953l-5.6 8.987A9.868 9.868 0 0 1 2.15 12c0-5.414 4.342-9.818 9.678-9.818 5.337 0 9.678 4.404 9.678 9.818 0 .01.003.018.003.026 0 .01-.002.018-.001.027.05 1.049-.29 1.883-.933 2.289Zm3.082-2.34v-.028l-.001-.027C23.626 5.353 18.332 0 11.828 0 5.307 0 0 5.383 0 12c0 6.616 5.307 12 11.829 12a11.7 11.7 0 0 0 8.041-3.2 1.1 1.1 0 0 0-.281-1.79 1.067 1.067 0 0 0-1.181.19 9.57 9.57 0 0 1-6.58 2.618c-2.857 0-5.428-1.264-7.201-3.268l5.051-8.105v3.737c0 1.794.697 2.374 1.28 2.544.585.17 1.479.054 2.416-1.468l2.779-4.5c.089-.146.17-.271.246-.38v2.276c0 1.678.672 3.02 1.844 3.68 1.057.596 2.386.543 3.468-.14 1.312-.828 2.02-2.354 1.946-4.193Zm16.467-4.1c.284.172.53.556.53.902a1.03 1.03 0 0 1-1.003 1.018c-.132 0-.265-.038-.378-.077-.625-.46-1.42-.768-2.253-.768-1.969 0-3.332 1.613-3.332 3.61 0 1.997 1.363 3.59 3.332 3.59.984 0 1.855-.403 2.517-1.017.172-.123.377-.19.587-.192.53 0 .947.422.947.96 0 .345-.209.652-.473.825-.947.807-2.234 1.344-3.559 1.344-3.028 0-5.49-2.496-5.49-5.568 0-3.072 2.461-5.568 5.49-5.568 1.136 0 2.214.345 3.085.94Zm5.538 2.323c2.063 0 3.805 1.747 3.805 3.897 0 2.151-1.742 3.975-3.805 3.975-2.158 0-3.956-1.824-3.956-3.975 0-2.15 1.798-3.897 3.956-3.897Zm-.02 5.952c.91 0 1.686-.864 1.686-2.035 0-1.171-.776-1.901-1.685-1.901-.984 0-1.798.71-1.798 1.9 0 1.172.814 2.036 1.798 2.036Zm5.122.73v-5.491c0-.596.474-1.095 1.06-1.095.587 0 1.08.5 1.08 1.095v5.49A1.1 1.1 0 0 1 51.824 18c-.586 0-1.06-.5-1.06-1.095Zm-.17-8.66c0-.71.549-1.286 1.23-1.286.7 0 1.269.576 1.269 1.287 0 .69-.568 1.248-1.268 1.248-.682 0-1.23-.558-1.23-1.248Zm6.409 5.683v2.976c0 .596-.492 1.095-1.08 1.095-.586 0-1.06-.5-1.06-1.095v-5.74c0-.461.379-.845.834-.845.453 0 .814.384.814.845.87-.806 1.627-.941 2.346-.941 2.14 0 3.086 1.613 3.086 3.437v3.244c0 .596-.492 1.095-1.079 1.095s-1.06-.5-1.06-1.095V13.93c0-.94-.114-1.728-1.457-1.728-.947 0-1.345.788-1.345 1.728ZM68.9 15.063c-.246 0-.415-.116-.548-.27l-2.5-2.706v4.818c0 .596-.491 1.095-1.078 1.095-.587 0-1.06-.5-1.06-1.095V7.364a.418.418 0 0 1 .398-.27c.188 0 .34.155.454.27l3.975 4.473c.114.135.265.212.34.212.076 0 .228-.077.341-.211l3.976-4.474c.113-.115.265-.27.454-.27s.34.116.397.27v9.541c0 .596-.473 1.095-1.06 1.095-.587 0-1.079-.5-1.079-1.095v-4.818l-2.498 2.706c-.133.154-.303.27-.512.27Zm10.29 1.113c.965 0 1.779-.864 1.779-2.035 0-1.171-.833-1.94-1.78-1.94-.946 0-1.703.788-1.703 1.94 0 1.132.757 2.035 1.704 2.035Zm2.271.98-.038-.25c-.416.825-1.742 1.19-2.594 1.19-2.006 0-3.483-1.824-3.483-3.975 0-2.15 1.515-3.897 3.597-3.897.36 0 1.552.096 2.48 1.19l.038-.25c0-.46.36-.844.814-.844.454 0 .832.384.832.845v5.99a.846.846 0 0 1-.833.845c-.454 0-.814-.384-.814-.845h.001Zm7.582-4.955h-.227c-1.344.078-1.609.846-1.609 1.728v2.976c0 .596-.492 1.095-1.079 1.095s-1.06-.5-1.06-1.095v-5.74c0-.461.378-.845.833-.845.454 0 .814.384.814.845.795-.749 1.439-.902 2.101-.941h.208c.512 0 .984.441.984.999 0 .518-.454.978-.965.978Zm8.245 4.206a.972.972 0 0 1 .151.518c0 .556-.511 1.075-1.06 1.075-.378 0-.7-.288-.946-.595l-2.46-2.861v2.361A1.1 1.1 0 0 1 91.892 18c-.587 0-1.06-.5-1.06-1.095V8.19c0-.596.473-1.094 1.06-1.094.587 0 1.079.498 1.079 1.094v5.434l2.46-2.727c.247-.288.55-.576.928-.576.53 0 1.023.5 1.023 1.056a.94.94 0 0 1-.133.5l-1.95 2.13 1.988 2.4Zm4.194-4.167c-.587 0-1.534.307-1.534 1.21h3.086c0-.922-.985-1.21-1.553-1.21h.001Zm2.801 2.573h-4.335c0 1.286 1.23 1.478 1.779 1.478.399 0 .966-.076 1.401-.269.133-.095.36-.173.549-.173.474 0 .871.404.871.884 0 .326-.208.614-.473.768-.662.48-1.515.595-2.328.595-2.158 0-3.957-1.17-3.957-3.879 0-2.13 1.098-3.993 3.654-3.993 2.063 0 3.634 1.344 3.672 3.744 0 .46-.378.845-.833.845Zm5.954 3.283h-.587c-1.628 0-2.574-.71-2.574-3.264v-2.63h-.549c-.511 0-.965-.461-.965-.98 0-.557.454-.998.965-.998h.549V8.189c0-.596.473-1.095 1.06-1.095.587 0 1.079.5 1.079 1.095v2.035h.889c.512 0 .966.441.966.999 0 .518-.454.978-.966.978h-.889v2.208c0 1.46.076 1.767.72 1.767h.302c.511 0 .946.423.946.96 0 .519-.435.96-.946.96Zm10.365-10.195c.284.172.53.556.53.902 0 .557-.473 1.018-1.003 1.018-.133 0-.266-.038-.379-.077-.625-.46-1.42-.768-2.253-.768-1.968 0-3.331 1.613-3.331 3.61 0 1.997 1.363 3.59 3.331 3.59.985 0 1.856-.403 2.518-1.017.171-.123.376-.19.587-.192.53 0 .946.422.946.96 0 .345-.208.652-.473.825-.946.807-2.234 1.344-3.559 1.344-3.028 0-5.489-2.496-5.489-5.568 0-3.072 2.46-5.568 5.489-5.568 1.137 0 2.215.345 3.086.94Zm5.424 8.275c.966 0 1.779-.864 1.779-2.035 0-1.171-.833-1.94-1.779-1.94s-1.704.788-1.704 1.94c0 1.132.758 2.035 1.704 2.035Zm2.271.98-.037-.25c-.417.825-1.742 1.19-2.594 1.19-2.006 0-3.483-1.824-3.483-3.975 0-2.15 1.515-3.897 3.597-3.897a3.32 3.32 0 0 1 2.48 1.19l.037-.25c0-.46.36-.844.815-.844.454 0 .833.384.833.845v5.99a.847.847 0 0 1-.833.845c-.455 0-.815-.384-.815-.845Zm7.526-.98c.946 0 1.703-.903 1.703-2.035 0-1.152-.757-1.94-1.703-1.94-.947 0-1.78.768-1.78 1.94 0 1.171.814 2.035 1.78 2.035Zm-1.78 1.287v2.726c0 .595-.492 1.094-1.079 1.094-.586 0-1.06-.499-1.06-1.094v-9.024c0-.461.379-.845.834-.845.454 0 .814.384.814.921.794-.825 1.779-1.017 2.517-1.017 2.082 0 3.597 1.747 3.597 3.897 0 2.151-1.477 3.975-3.483 3.975-.625 0-1.553-.192-2.14-.633Z" clip-rule="evenodd"/>
</svg>
